X:18179
T:Valse pointe de Vatan
C:Trad 1, 21
M:3/4
L:1/4
K:C
G|:g2 ^f/g/|agc|e2d/c/|d2G::\
cBA|Gde|fdB|1d2c:|2 c2G:|**
